<?xml version="1.0" encoding="UTF-8"?>
<map version="1.10" tiledversion="1.11.2" orientation="orthogonal" renderorder="right-down" width="24" height="24" tilewidth="64" tileheight="64" infinite="0" nextlayerid="10" nextobjectid="22">
 <editorsettings>
  <export target="room0.lua" format="lua"/>
 </editorsettings>
 <tileset firstgid="1" name="Custom tiles" tilewidth="64" tileheight="64" tilecount="15" columns="0">
  <grid orientation="orthogonal" width="1" height="1"/>
  <tile id="0">
   <image source="wall button highlight.png" width="64" height="64"/>
  </tile>
  <tile id="1">
   <image source="wall corner piece 2.png" width="64" height="64"/>
  </tile>
  <tile id="2">
   <image source="wall corner piece.png" width="64" height="64"/>
  </tile>
  <tile id="3">
   <image source="wall corner shadow.png" width="64" height="64"/>
  </tile>
  <tile id="4">
   <image source="wall corner.png" width="64" height="64"/>
  </tile>
  <tile id="5">
   <image source="wall highlight.png" width="64" height="64"/>
  </tile>
  <tile id="6">
   <image source="wall.png" width="64" height="64"/>
  </tile>
  <tile id="7">
   <image source="wall-border 2.png" width="64" height="64"/>
  </tile>
  <tile id="8">
   <image source="wall-border.png" width="64" height="64"/>
  </tile>
  <tile id="9">
   <image source="Black border fill.png" width="64" height="64"/>
  </tile>
  <tile id="10">
   <image source="corner shadow.png" width="64" height="64"/>
  </tile>
  <tile id="11">
   <image source="floor shadow.png" width="64" height="64"/>
  </tile>
  <tile id="12">
   <image source="tile-black.png" width="64" height="64"/>
  </tile>
  <tile id="13">
   <image source="tile-white.png" width="64" height="64"/>
  </tile>
  <tile id="14">
   <image source="Untitled.png" width="64" height="64"/>
  </tile>
 </tileset>
 <objectgroup id="8" name="EnemySpawns">
  <object id="10" x="1216" y="128" width="192" height="192"/>
  <object id="11" x="1216" y="704" width="192" height="192"/>
  <object id="21" x="128" y="704" width="192" height="192"/>
  <object id="12" x="1216" y="1280" width="192" height="192"/>
  <object id="13" x="128" y="128" width="192" height="192"/>
  <object id="14" x="128" y="1280" width="192" height="192"/>
 </objectgroup>
 <objectgroup id="7" name="Walls" locked="1">
  <object id="4" x="64" y="64" width="1408" height="64"/>
  <object id="5" x="1408" y="128" width="64" height="1408"/>
  <object id="7" x="128" y="1472" width="1280" height="64"/>
  <object id="8" x="64" y="128" width="64" height="1408"/>
 </objectgroup>
 <objectgroup id="9" name="Navigation" locked="1">
  <object id="17" name="NavigationBounds" x="128" y="128" width="1280" height="1344">
   <properties>
    <property name="can_navigate" type="bool" value="true"/>
   </properties>
  </object>
 </objectgroup>
 <layer id="2" name="Ground" width="24" height="24" locked="1">
  <data encoding="csv">
0,0,0,0,0,0,0,0,0,0,0,0,0,0,0,0,0,0,0,0,0,0,0,0,
0,13,13,0,0,0,0,0,0,0,0,0,0,0,0,0,0,0,0,0,0,0,0,0,
0,13,14,14,13,13,14,14,13,13,14,14,13,13,14,14,13,13,14,14,13,13,0,0,
0,0,14,14,13,13,14,14,13,13,14,14,13,13,14,14,13,13,14,14,13,13,0,0,
0,0,13,13,14,14,13,13,14,14,13,13,14,14,13,13,14,14,13,13,14,14,0,0,
0,0,13,13,14,14,13,13,14,14,13,13,14,14,13,13,14,14,13,13,14,14,0,0,
0,0,14,14,13,13,14,14,13,13,14,14,13,13,14,14,13,13,14,14,13,13,0,0,
0,0,14,14,13,13,14,14,13,13,14,14,13,13,14,14,13,13,14,14,13,13,0,0,
0,0,13,13,14,14,13,13,14,14,13,13,14,14,13,13,14,14,13,13,14,14,0,0,
0,0,13,13,14,14,13,13,14,14,13,13,14,14,13,13,14,14,13,13,14,14,0,0,
0,0,14,14,13,13,14,14,13,13,14,14,13,13,14,14,13,13,14,14,13,13,0,0,
0,0,14,14,13,13,14,14,13,13,14,14,13,13,14,14,13,13,14,14,13,13,0,0,
0,0,13,13,14,14,13,13,14,14,13,13,14,14,13,13,14,14,13,13,14,14,0,0,
0,0,13,13,14,14,13,13,14,14,13,13,14,14,13,13,14,14,13,13,14,14,0,0,
0,0,14,14,13,13,14,14,13,13,14,14,13,13,14,14,13,13,14,14,13,13,0,0,
0,0,14,14,13,13,14,14,13,13,14,14,13,13,14,14,13,13,14,14,13,13,0,0,
0,0,13,13,14,14,13,13,14,14,13,13,14,14,13,13,14,14,13,13,14,14,0,0,
0,0,13,13,14,14,13,13,14,14,13,13,14,14,13,13,14,14,13,13,14,14,0,0,
0,0,14,14,13,13,14,14,13,13,14,14,13,13,14,14,13,13,14,14,13,13,0,0,
0,0,14,14,13,13,14,14,13,13,14,14,13,13,14,14,13,13,14,14,13,13,0,0,
0,0,13,13,14,14,13,13,14,14,13,13,14,14,13,13,14,14,13,13,14,14,0,0,
0,0,13,13,14,14,13,13,14,14,13,13,14,14,13,13,14,14,13,13,14,14,0,0,
0,0,14,14,13,13,14,14,13,13,14,14,13,13,14,14,13,13,14,14,13,13,0,0,
0,0,0,0,0,0,0,0,0,0,0,0,0,0,0,0,0,0,0,0,0,0,0,0
</data>
 </layer>
 <layer id="4" name="Floor Shadow" width="24" height="24" locked="1">
  <data encoding="csv">
0,0,0,0,0,0,0,0,0,0,0,0,0,0,0,0,0,0,0,0,0,0,0,0,
0,0,0,0,0,0,0,0,0,0,0,0,0,0,0,0,0,0,0,0,0,0,0,0,
0,0,1610612747,12,12,12,12,12,12,12,12,12,12,12,12,12,12,12,12,12,12,11,0,0,
0,0,1610612748,0,0,0,0,0,0,0,0,0,0,0,0,0,0,0,0,0,0,2684354572,0,0,
0,0,1610612748,0,0,0,0,0,0,0,0,0,0,0,0,0,0,0,0,0,0,2684354572,0,0,
0,0,1610612748,0,0,0,0,0,0,0,0,0,0,0,0,0,0,0,0,0,0,2684354572,0,0,
0,0,1610612748,0,0,0,0,0,0,0,0,0,0,0,0,0,0,0,0,0,0,2684354572,0,0,
0,0,1610612748,0,0,0,0,0,0,0,0,0,0,0,0,0,0,0,0,0,0,2684354572,0,0,
0,0,1610612748,0,0,0,0,0,0,0,0,0,0,0,0,0,0,0,0,0,0,2684354572,0,0,
0,0,1610612748,0,0,0,0,0,0,0,0,0,0,0,0,0,0,0,0,0,0,2684354572,0,0,
0,0,1610612748,0,0,0,0,0,0,0,0,0,0,0,0,0,0,0,0,0,0,2684354572,0,0,
0,0,1610612748,0,0,0,0,0,0,0,0,0,0,0,0,0,0,0,0,0,0,2684354572,0,0,
0,0,1610612748,0,0,0,0,0,0,0,0,0,0,0,0,0,0,0,0,0,0,2684354572,0,0,
0,0,1610612748,0,0,0,0,0,0,0,0,0,0,0,0,0,0,0,0,0,0,2684354572,0,0,
0,0,1610612748,0,0,0,0,0,0,0,0,0,0,0,0,0,0,0,0,0,0,2684354572,0,0,
0,0,1610612748,0,0,0,0,0,0,0,0,0,0,0,0,0,0,0,0,0,0,2684354572,0,0,
0,0,1610612748,0,0,0,0,0,0,0,0,0,0,0,0,0,0,0,0,0,0,2684354572,0,0,
0,0,1610612748,0,0,0,0,0,0,0,0,0,0,0,0,0,0,0,0,0,0,2684354572,0,0,
0,0,1610612748,0,0,0,0,0,0,0,0,0,0,0,0,0,0,0,0,0,0,2684354572,0,0,
0,0,1610612748,0,0,0,0,0,0,0,0,0,0,0,0,0,0,0,0,0,0,2684354572,0,0,
0,0,1610612748,0,0,0,0,0,0,0,0,0,0,0,0,0,0,0,0,0,0,2684354572,0,0,
0,0,1610612748,0,0,0,0,0,0,0,0,0,0,0,0,0,0,0,0,0,0,2684354572,0,0,
0,0,1610612748,0,0,0,0,0,0,0,0,0,0,0,0,0,0,0,0,0,0,2684354572,0,0,
0,0,0,0,0,0,0,0,0,0,0,0,0,0,0,0,0,0,0,0,0,0,0,0
</data>
 </layer>
 <layer id="3" name="Wall" width="24" height="24" locked="1">
  <data encoding="csv">
0,0,0,0,0,0,0,0,0,0,0,0,0,0,0,0,0,0,0,0,0,0,0,0,
0,2684354565,5,1610612741,3221225477,1610612741,5,2684354565,3221225477,2684354565,5,7,3221225479,2684354565,3221225477,1610612741,5,1610612741,5,1610612741,5,1610612741,5,0,
0,1610612741,0,0,0,0,0,0,0,0,0,0,0,0,0,0,0,0,0,0,0,0,5,0,
0,5,0,0,0,0,0,0,0,0,0,0,0,0,0,0,0,0,0,0,0,0,5,0,
0,1610612741,0,0,0,0,0,0,0,0,0,0,0,0,0,0,0,0,0,0,0,0,5,0,
0,5,0,0,0,0,0,0,0,0,0,0,0,0,0,0,0,0,0,0,0,0,5,0,
0,1610612741,0,0,0,0,0,0,0,0,0,0,0,0,0,0,0,0,0,0,0,0,5,0,
0,5,0,0,0,0,0,0,0,0,0,0,0,0,0,0,0,0,0,0,0,0,5,0,
0,1610612741,0,0,0,0,0,0,0,0,0,0,0,0,0,0,0,0,0,0,0,0,5,0,
0,5,0,0,0,0,0,0,0,0,0,0,0,0,0,0,0,0,0,0,0,0,5,0,
0,1610612741,0,0,0,0,0,0,0,0,0,0,0,0,0,0,0,0,0,0,0,0,5,0,
0,5,0,0,0,0,0,0,0,0,0,0,0,0,0,0,0,0,0,0,0,0,5,0,
0,1610612741,0,0,0,0,0,0,0,0,0,0,0,0,0,0,0,0,0,0,0,0,5,0,
0,5,0,0,0,0,0,0,0,0,0,0,0,0,0,0,0,0,0,0,0,0,5,0,
0,1610612741,0,0,0,0,0,0,0,0,0,0,0,0,0,0,0,0,0,0,0,0,5,0,
0,5,0,0,0,0,0,0,0,0,0,0,0,0,0,0,0,0,0,0,0,0,5,0,
0,5,0,0,0,0,0,0,0,0,0,0,0,0,0,0,0,0,0,0,0,0,5,0,
0,5,0,0,0,0,0,0,0,0,0,0,0,0,0,0,0,0,0,0,0,0,5,0,
0,5,0,0,0,0,0,0,0,0,0,0,0,0,0,0,0,0,0,0,0,0,5,0,
0,5,0,0,0,0,0,0,0,0,0,0,0,0,0,0,0,0,0,0,0,0,5,0,
0,5,0,0,0,0,0,0,0,0,0,0,0,0,0,0,0,0,0,0,0,0,5,0,
0,5,0,0,0,0,0,0,0,0,0,0,0,0,0,0,0,0,0,0,0,0,5,0,
0,5,0,0,0,0,0,0,0,0,0,0,0,0,0,0,0,0,0,0,0,0,5,0,
0,0,0,0,0,0,0,0,0,0,0,0,0,0,0,0,0,0,0,0,0,0,0,0
</data>
 </layer>
 <layer id="6" name="Wall Highlights" width="24" height="24" locked="1">
  <data encoding="csv">
0,0,0,0,0,0,0,0,0,0,0,0,0,0,0,0,0,0,0,0,0,0,0,0,
0,6,6,6,6,6,6,6,6,1610612742,1610612742,1,3221225473,6,6,6,6,6,6,6,6,6,6,0,
0,6,0,0,0,0,0,0,0,0,0,0,0,0,0,0,0,0,0,0,0,0,6,0,
0,1610612742,0,0,0,0,0,0,0,0,0,0,0,0,0,0,0,0,0,0,0,0,6,0,
0,1610612742,0,0,0,0,0,0,0,0,0,0,0,0,0,0,0,0,0,0,0,0,6,0,
0,1610612742,0,0,0,0,0,0,0,0,0,0,0,0,0,0,0,0,0,0,0,0,6,0,
0,1610612742,0,0,0,0,0,0,0,0,0,0,0,0,0,0,0,0,0,0,0,0,6,0,
0,1610612742,0,0,0,0,0,0,0,0,0,0,0,0,0,0,0,0,0,0,0,0,6,0,
0,1610612742,0,0,0,0,0,0,0,0,0,0,0,0,0,0,0,0,0,0,0,0,6,0,
0,1610612742,0,0,0,0,0,0,0,0,0,0,0,0,0,0,0,0,0,0,0,0,6,0,
0,1610612742,0,0,0,0,0,0,0,0,0,0,0,0,0,0,0,0,0,0,0,0,6,0,
0,1610612742,0,0,0,0,0,0,0,0,0,0,0,0,0,0,0,0,0,0,0,0,6,0,
0,1610612742,0,0,0,0,0,0,0,0,0,0,0,0,0,0,0,0,0,0,0,0,6,0,
0,1610612742,0,0,0,0,0,0,0,0,0,0,0,0,0,0,0,0,0,0,0,0,6,0,
0,6,0,0,0,0,0,0,0,0,0,0,0,0,0,0,0,0,0,0,0,0,6,0,
0,6,0,0,0,0,0,0,0,0,0,0,0,0,0,0,0,0,0,0,0,0,6,0,
0,6,0,0,0,0,0,0,0,0,0,0,0,0,0,0,0,0,0,0,0,0,6,0,
0,6,0,0,0,0,0,0,0,0,0,0,0,0,0,0,0,0,0,0,0,0,6,0,
0,6,0,0,0,0,0,0,0,0,0,0,0,0,0,0,0,0,0,0,0,0,6,0,
0,6,0,0,0,0,0,0,0,0,0,0,0,0,0,0,0,0,0,0,0,0,6,0,
0,6,0,0,0,0,0,0,0,0,0,0,0,0,0,0,0,0,0,0,0,0,6,0,
0,6,0,0,0,0,0,0,0,0,0,0,0,0,0,0,0,0,0,0,0,0,6,0,
0,6,0,0,0,0,0,0,0,0,0,0,0,0,0,0,0,0,0,0,0,0,6,0,
0,0,0,0,0,0,0,0,0,0,0,0,0,0,0,0,0,0,0,0,0,0,0,0
</data>
 </layer>
 <layer id="5" name="Wall Shadow" width="24" height="24" locked="1">
  <data encoding="csv">
0,0,0,0,0,0,0,0,0,0,0,0,0,0,0,0,0,0,0,0,0,0,0,0,
0,4,3221225484,3221225484,3221225484,3221225484,3221225484,3221225484,3221225484,3221225484,3221225484,3221225484,3221225484,3221225484,3221225484,3221225484,3221225484,3221225484,3221225484,3221225484,3221225484,3221225484,2684354564,0,
0,2684354572,0,0,0,0,0,0,0,0,0,0,0,0,0,0,0,0,0,0,0,0,1610612748,0,
0,2684354572,0,0,0,0,0,0,0,0,0,0,0,0,0,0,0,0,0,0,0,0,1610612748,0,
0,2684354572,0,0,0,0,0,0,0,0,0,0,0,0,0,0,0,0,0,0,0,0,1610612748,0,
0,2684354572,0,0,0,0,0,0,0,0,0,0,0,0,0,0,0,0,0,0,0,0,1610612748,0,
0,2684354572,0,0,0,0,0,0,0,0,0,0,0,0,0,0,0,0,0,0,0,0,1610612748,0,
0,2684354572,0,0,0,0,0,0,0,0,0,0,0,0,0,0,0,0,0,0,0,0,1610612748,0,
0,2684354572,0,0,0,0,0,0,0,0,0,0,0,0,0,0,0,0,0,0,0,0,1610612748,0,
0,2684354572,0,0,0,0,0,0,0,0,0,0,0,0,0,0,0,0,0,0,0,0,1610612748,0,
0,2684354572,0,0,0,0,0,0,0,0,0,0,0,0,0,0,0,0,0,0,0,0,1610612748,0,
0,2684354572,0,0,0,0,0,0,0,0,0,0,0,0,0,0,0,0,0,0,0,0,1610612748,0,
0,2684354572,0,0,0,0,0,0,0,0,0,0,0,0,0,0,0,0,0,0,0,0,1610612748,0,
0,2684354572,0,0,0,0,0,0,0,0,0,0,0,0,0,0,0,0,0,0,0,0,1610612748,0,
0,2684354572,0,0,0,0,0,0,0,0,0,0,0,0,0,0,0,0,0,0,0,0,1610612748,0,
0,2684354572,0,0,0,0,0,0,0,0,0,0,0,0,0,0,0,0,0,0,0,0,1610612748,0,
0,2684354572,0,0,0,0,0,0,0,0,0,0,0,0,0,0,0,0,0,0,0,0,1610612748,0,
0,2684354572,0,0,0,0,0,0,0,0,0,0,0,0,0,0,0,0,0,0,0,0,1610612748,0,
0,2684354572,0,0,0,0,0,0,0,0,0,0,0,0,0,0,0,0,0,0,0,0,1610612748,0,
0,2684354572,0,0,0,0,0,0,0,0,0,0,0,0,0,0,0,0,0,0,0,0,1610612748,0,
0,2684354572,0,0,0,0,0,0,0,0,0,0,0,0,0,0,0,0,0,0,0,0,1610612748,0,
0,2684354572,0,0,0,0,0,0,0,0,0,0,0,0,0,0,0,0,0,0,0,0,1610612748,0,
0,2684354572,0,0,0,0,0,0,0,0,0,0,0,0,0,0,0,0,0,0,0,0,1610612748,0,
0,0,0,0,0,0,0,0,0,0,0,0,0,0,0,0,0,0,0,0,0,0,0,0
</data>
 </layer>
 <layer id="1" name="Wall Border" width="24" height="24" locked="1">
  <data encoding="csv">
1610612751,1610612744,1610612744,1610612744,1610612744,1610612744,1610612744,1610612744,1610612744,1610612744,1610612744,1610612744,1610612744,1610612744,1610612744,1610612744,1610612744,1610612744,1610612744,1610612744,1610612744,1610612744,1610612744,2,
3221225480,0,0,0,0,0,0,0,0,0,0,0,0,0,0,0,0,0,0,0,0,0,0,8,
3221225480,0,0,0,0,0,0,0,0,0,0,0,0,0,0,0,0,0,0,0,0,0,0,8,
3221225480,0,0,0,0,0,0,0,0,0,0,0,0,0,0,0,0,0,0,0,0,0,0,8,
3221225480,0,0,0,0,0,0,0,0,0,0,0,0,0,0,0,0,0,0,0,0,0,0,8,
3221225480,0,0,0,0,0,0,0,0,0,0,0,0,0,0,0,0,0,0,0,0,0,0,8,
3221225480,0,0,0,0,0,0,0,0,0,0,0,0,0,0,0,0,0,0,0,0,0,0,8,
3221225480,0,0,0,0,0,0,0,0,0,0,0,0,0,0,0,0,0,0,0,0,0,0,8,
3221225480,0,0,0,0,0,0,0,0,0,0,0,0,0,0,0,0,0,0,0,0,0,0,8,
3221225480,0,0,0,0,0,0,0,0,0,0,0,0,0,0,0,0,0,0,0,0,0,0,8,
3221225480,0,0,0,0,0,0,0,0,0,0,0,0,0,0,0,0,0,0,0,0,0,0,8,
3221225480,0,0,0,0,0,0,0,0,0,0,0,0,0,0,0,0,0,0,0,0,0,0,8,
3221225480,0,0,0,0,0,0,0,0,0,0,0,0,0,0,0,0,0,0,0,0,0,0,8,
3221225480,0,0,0,0,0,0,0,0,0,0,0,0,0,0,0,0,0,0,0,0,0,0,8,
3221225480,0,0,0,0,0,0,0,0,0,0,0,0,0,0,0,0,0,0,0,0,0,0,8,
3221225480,0,0,0,0,0,0,0,0,0,0,0,0,0,0,0,0,0,0,0,0,0,0,8,
3221225480,0,0,0,0,0,0,0,0,0,0,0,0,0,0,0,0,0,0,0,0,0,0,8,
3221225480,0,0,0,0,0,0,0,0,0,0,0,0,0,0,0,0,0,0,0,0,0,0,8,
3221225480,0,0,0,0,0,0,0,0,0,0,0,0,0,0,0,0,0,0,0,0,0,0,8,
3221225480,0,0,0,0,0,0,0,0,0,0,0,0,0,0,0,0,0,0,0,0,0,0,8,
3221225480,0,0,0,0,0,0,0,0,0,0,0,0,0,0,0,0,0,0,0,0,0,0,8,
3221225480,0,0,0,0,0,0,0,0,0,0,0,0,0,0,0,0,0,0,0,0,0,0,8,
3221225480,0,0,0,0,0,0,0,0,0,0,0,0,0,0,0,0,0,0,0,0,0,0,8,
3221225474,2684354568,2684354568,2684354568,2684354568,2684354568,2684354568,2684354568,2684354568,2684354568,2684354568,2684354568,2684354568,2684354568,2684354568,2684354568,2684354568,2684354568,2684354568,2684354568,2684354568,2684354568,2684354568,2684354562
</data>
 </layer>
</map>
