<?xml version="1.0" encoding="UTF-8"?>
<map version="1.10" tiledversion="1.11.2" orientation="orthogonal" renderorder="right-down" width="20" height="12" tilewidth="64" tileheight="64" infinite="0" nextlayerid="19" nextobjectid="7">
 <editorsettings>
  <export target="saferoommap.lua" format="lua"/>
 </editorsettings>
 <tileset firstgid="1" name="FieldsTileset" tilewidth="64" tileheight="64" tilecount="16" columns="4">
  <image source="craftpix-free-fields-tileset/1 Tiles/FieldsTileset.png" width="256" height="256"/>
 </tileset>
 <tileset firstgid="17" name="Grass" tilewidth="9" tileheight="10" tilecount="6" columns="0">
  <grid orientation="orthogonal" width="1" height="1"/>
  <tile id="0">
   <image source="craftpix-free-fields-tileset/2 Objects/5 Grass/1.png" width="5" height="6"/>
  </tile>
  <tile id="1">
   <image source="craftpix-free-fields-tileset/2 Objects/5 Grass/2.png" width="9" height="6"/>
  </tile>
  <tile id="2">
   <image source="craftpix-free-fields-tileset/2 Objects/5 Grass/3.png" width="5" height="7"/>
  </tile>
  <tile id="3">
   <image source="craftpix-free-fields-tileset/2 Objects/5 Grass/4.png" width="8" height="5"/>
  </tile>
  <tile id="4">
   <image source="craftpix-free-fields-tileset/2 Objects/5 Grass/5.png" width="6" height="10"/>
  </tile>
  <tile id="5">
   <image source="craftpix-free-fields-tileset/2 Objects/5 Grass/6.png" width="5" height="8"/>
  </tile>
 </tileset>
 <tileset firstgid="23" name="Shadow" tilewidth="95" tileheight="64" tilecount="8" columns="0">
  <grid orientation="orthogonal" width="1" height="1"/>
  <tile id="0">
   <image source="craftpix-free-fields-tileset/2 Objects/1 Shadow/1.png" width="20" height="21"/>
  </tile>
  <tile id="1">
   <image source="craftpix-free-fields-tileset/2 Objects/1 Shadow/2.png" width="29" height="25"/>
  </tile>
  <tile id="2">
   <image source="craftpix-free-fields-tileset/2 Objects/1 Shadow/3.png" width="30" height="26"/>
  </tile>
  <tile id="3">
   <image source="craftpix-free-fields-tileset/2 Objects/1 Shadow/4.png" width="44" height="37"/>
  </tile>
  <tile id="4">
   <image source="craftpix-free-fields-tileset/2 Objects/1 Shadow/5.png" width="55" height="44"/>
  </tile>
  <tile id="5">
   <image source="craftpix-free-fields-tileset/2 Objects/1 Shadow/6.png" width="95" height="62"/>
  </tile>
  <tile id="6">
   <image source="corner shadow.png" width="64" height="64"/>
  </tile>
  <tile id="7">
   <image source="floor shadow.png" width="64" height="64"/>
  </tile>
 </tileset>
 <tileset firstgid="31" name="Stone" tilewidth="38" tileheight="30" tilecount="16" columns="0">
  <grid orientation="orthogonal" width="1" height="1"/>
  <tile id="0">
   <image source="craftpix-free-fields-tileset/2 Objects/4 Stone/1.png" width="11" height="8"/>
  </tile>
  <tile id="1">
   <image source="craftpix-free-fields-tileset/2 Objects/4 Stone/2.png" width="6" height="4"/>
  </tile>
  <tile id="2">
   <image source="craftpix-free-fields-tileset/2 Objects/4 Stone/3.png" width="11" height="7"/>
  </tile>
  <tile id="3">
   <image source="craftpix-free-fields-tileset/2 Objects/4 Stone/4.png" width="13" height="8"/>
  </tile>
  <tile id="4">
   <image source="craftpix-free-fields-tileset/2 Objects/4 Stone/5.png" width="7" height="5"/>
  </tile>
  <tile id="5">
   <image source="craftpix-free-fields-tileset/2 Objects/4 Stone/6.png" width="12" height="8"/>
  </tile>
  <tile id="6">
   <image source="craftpix-free-fields-tileset/2 Objects/4 Stone/7.png" width="37" height="27"/>
  </tile>
  <tile id="7">
   <image source="craftpix-free-fields-tileset/2 Objects/4 Stone/8.png" width="38" height="23"/>
  </tile>
  <tile id="8">
   <image source="craftpix-free-fields-tileset/2 Objects/4 Stone/9.png" width="19" height="16"/>
  </tile>
  <tile id="9">
   <image source="craftpix-free-fields-tileset/2 Objects/4 Stone/10.png" width="27" height="21"/>
  </tile>
  <tile id="10">
   <image source="craftpix-free-fields-tileset/2 Objects/4 Stone/11.png" width="35" height="30"/>
  </tile>
  <tile id="11">
   <image source="craftpix-free-fields-tileset/2 Objects/4 Stone/12.png" width="29" height="22"/>
  </tile>
  <tile id="12">
   <image source="craftpix-free-fields-tileset/2 Objects/4 Stone/13.png" width="19" height="14"/>
  </tile>
  <tile id="13">
   <image source="craftpix-free-fields-tileset/2 Objects/4 Stone/14.png" width="22" height="16"/>
  </tile>
  <tile id="14">
   <image source="craftpix-free-fields-tileset/2 Objects/4 Stone/15.png" width="21" height="20"/>
  </tile>
  <tile id="15">
   <image source="craftpix-free-fields-tileset/2 Objects/4 Stone/16.png" width="22" height="17"/>
  </tile>
 </tileset>
 <tileset firstgid="47" name="Pointer" tilewidth="24" tileheight="36" tilecount="6" columns="0">
  <grid orientation="orthogonal" width="1" height="1"/>
  <tile id="0">
   <image source="craftpix-free-fields-tileset/2 Objects/3 Pointer/1.png" width="20" height="36"/>
  </tile>
  <tile id="1">
   <image source="craftpix-free-fields-tileset/2 Objects/3 Pointer/2.png" width="14" height="35"/>
  </tile>
  <tile id="2">
   <image source="craftpix-free-fields-tileset/2 Objects/3 Pointer/3.png" width="16" height="36"/>
  </tile>
  <tile id="3">
   <image source="craftpix-free-fields-tileset/2 Objects/3 Pointer/4.png" width="24" height="36"/>
  </tile>
  <tile id="4">
   <image source="craftpix-free-fields-tileset/2 Objects/3 Pointer/5.png" width="24" height="16"/>
  </tile>
  <tile id="5">
   <image source="craftpix-free-fields-tileset/2 Objects/3 Pointer/6.png" width="15" height="10"/>
  </tile>
 </tileset>
 <tileset firstgid="53" name="Camp" tilewidth="57" tileheight="51" tilecount="6" columns="0">
  <grid orientation="orthogonal" width="1" height="1"/>
  <tile id="0">
   <image source="craftpix-free-fields-tileset/2 Objects/8 Camp/1.png" width="57" height="36"/>
  </tile>
  <tile id="1">
   <image source="craftpix-free-fields-tileset/2 Objects/8 Camp/2.png" width="36" height="51"/>
  </tile>
  <tile id="2">
   <image source="craftpix-free-fields-tileset/2 Objects/8 Camp/3.png" width="53" height="34"/>
  </tile>
  <tile id="3">
   <image source="craftpix-free-fields-tileset/2 Objects/8 Camp/4.png" width="56" height="38"/>
  </tile>
  <tile id="4">
   <image source="craftpix-free-fields-tileset/2 Objects/8 Camp/5.png" width="22" height="14"/>
  </tile>
  <tile id="5">
   <image source="craftpix-free-fields-tileset/2 Objects/8 Camp/6.png" width="22" height="13"/>
  </tile>
 </tileset>
 <tileset firstgid="59" name="Decor" tilewidth="66" tileheight="77" tilecount="22" columns="0">
  <grid orientation="orthogonal" width="1" height="1"/>
  <tile id="0">
   <image source="craftpix-free-fields-tileset/2 Objects/7 Decor/Box1.png" width="17" height="16"/>
  </tile>
  <tile id="1">
   <image source="craftpix-free-fields-tileset/2 Objects/7 Decor/Box2.png" width="18" height="18"/>
  </tile>
  <tile id="2">
   <image source="craftpix-free-fields-tileset/2 Objects/7 Decor/Box3.png" width="19" height="18"/>
  </tile>
  <tile id="3">
   <image source="craftpix-free-fields-tileset/2 Objects/7 Decor/Box4.png" width="14" height="16"/>
  </tile>
  <tile id="4">
   <image source="craftpix-free-fields-tileset/2 Objects/7 Decor/Dirt1.png" width="10" height="10"/>
  </tile>
  <tile id="5">
   <image source="craftpix-free-fields-tileset/2 Objects/7 Decor/Dirt2.png" width="16" height="14"/>
  </tile>
  <tile id="6">
   <image source="craftpix-free-fields-tileset/2 Objects/7 Decor/Dirt3.png" width="8" height="9"/>
  </tile>
  <tile id="7">
   <image source="craftpix-free-fields-tileset/2 Objects/7 Decor/Dirt4.png" width="9" height="6"/>
  </tile>
  <tile id="8">
   <image source="craftpix-free-fields-tileset/2 Objects/7 Decor/Dirt5.png" width="8" height="7"/>
  </tile>
  <tile id="9">
   <image source="craftpix-free-fields-tileset/2 Objects/7 Decor/Dirt6.png" width="15" height="14"/>
  </tile>
  <tile id="10">
   <image source="craftpix-free-fields-tileset/2 Objects/7 Decor/Lamp1.png" width="20" height="35"/>
  </tile>
  <tile id="11">
   <image source="craftpix-free-fields-tileset/2 Objects/7 Decor/Lamp2.png" width="11" height="35"/>
  </tile>
  <tile id="12">
   <image source="craftpix-free-fields-tileset/2 Objects/7 Decor/Lamp3.png" width="13" height="35"/>
  </tile>
  <tile id="13">
   <image source="craftpix-free-fields-tileset/2 Objects/7 Decor/Lamp4.png" width="27" height="17"/>
  </tile>
  <tile id="14">
   <image source="craftpix-free-fields-tileset/2 Objects/7 Decor/Lamp5.png" width="19" height="14"/>
  </tile>
  <tile id="15">
   <image source="craftpix-free-fields-tileset/2 Objects/7 Decor/Lamp6.png" width="16" height="22"/>
  </tile>
  <tile id="16">
   <image source="craftpix-free-fields-tileset/2 Objects/7 Decor/Log1.png" width="34" height="21"/>
  </tile>
  <tile id="17">
   <image source="craftpix-free-fields-tileset/2 Objects/7 Decor/Log2.png" width="33" height="32"/>
  </tile>
  <tile id="18">
   <image source="craftpix-free-fields-tileset/2 Objects/7 Decor/Log3.png" width="45" height="14"/>
  </tile>
  <tile id="19">
   <image source="craftpix-free-fields-tileset/2 Objects/7 Decor/Log4.png" width="11" height="33"/>
  </tile>
  <tile id="20">
   <image source="craftpix-free-fields-tileset/2 Objects/7 Decor/Tree1.png" width="66" height="77"/>
  </tile>
  <tile id="21">
   <image source="craftpix-free-fields-tileset/2 Objects/7 Decor/Tree2.png" width="29" height="26"/>
  </tile>
 </tileset>
 <tileset firstgid="81" name="Ground" tilewidth="64" tileheight="64" tilecount="2" columns="0">
  <grid orientation="orthogonal" width="1" height="1"/>
  <tile id="0">
   <image source="stone-floor.png" width="64" height="64"/>
  </tile>
  <tile id="1">
   <image source="stone-floor-large.png" width="64" height="64"/>
  </tile>
 </tileset>
 <tileset firstgid="83" name="Wall" tilewidth="64" tileheight="64" tilecount="5" columns="0">
  <grid orientation="orthogonal" width="1" height="1"/>
  <tile id="0">
   <image source="bookshelf-empty.png" width="64" height="64"/>
  </tile>
  <tile id="1">
   <image source="bookshelf-top.png" width="64" height="64"/>
  </tile>
  <tile id="3">
   <image source="bookshelf-top-2.png" width="64" height="64"/>
  </tile>
  <tile id="4">
   <image source="bookshelf-top-corner.png" width="64" height="64"/>
  </tile>
  <tile id="5">
   <image source="Black border fill.png" width="64" height="64"/>
  </tile>
 </tileset>
 <objectgroup id="14" name="Walls" locked="1">
  <object id="2" x="0" y="0" width="1280" height="64"/>
  <object id="3" x="0" y="704" width="1280" height="64"/>
  <object id="4" x="1216" y="64" width="64" height="640"/>
  <object id="5" x="0" y="64" width="64" height="640"/>
 </objectgroup>
 <layer id="1" name="Ground" width="20" height="12">
  <data encoding="csv">
0,0,0,0,0,0,0,0,0,0,0,0,0,0,0,0,0,0,0,0,
0,82,82,81,81,81,81,81,81,81,81,81,81,82,81,82,81,82,82,0,
0,82,82,81,81,81,81,82,81,82,81,81,82,81,82,81,81,82,82,0,
0,81,81,82,81,81,82,81,81,81,81,81,81,82,81,81,81,81,81,0,
0,81,81,81,81,82,82,81,81,81,82,81,81,81,81,81,81,81,81,0,
0,82,82,82,81,82,81,81,81,81,81,82,81,81,82,81,82,82,82,0,
0,82,82,82,81,81,81,81,82,81,81,81,81,82,81,81,82,82,82,0,
0,81,81,81,81,81,81,81,81,82,81,81,81,81,81,81,81,81,81,0,
0,81,81,81,81,81,82,81,81,81,81,81,81,82,82,81,81,81,81,0,
0,82,82,81,81,82,81,82,81,81,81,82,81,82,82,81,81,82,82,0,
0,82,82,81,82,81,82,81,81,81,82,81,81,81,81,81,81,82,82,0,
0,81,81,81,81,82,81,81,81,81,81,81,81,82,82,81,81,81,81,0
</data>
 </layer>
 <layer id="11" name="Shadow" width="20" height="12">
  <data encoding="csv">
0,0,0,0,0,0,0,0,0,0,0,0,0,0,0,0,0,0,0,0,
0,0,0,0,0,0,0,0,0,0,0,0,0,0,0,0,0,0,0,0,
0,0,0,0,0,0,0,0,0,0,0,0,0,0,0,0,0,0,0,0,
0,0,0,0,0,0,0,0,0,0,0,0,0,0,0,0,0,0,0,0,
0,0,0,0,0,0,0,0,0,0,0,0,0,0,0,0,0,0,0,0,
0,0,0,0,0,0,0,0,0,0,0,0,0,0,0,0,0,0,0,0,
0,0,0,0,0,0,0,0,0,0,0,0,0,0,0,0,0,0,0,0,
0,0,0,0,0,0,0,0,0,0,0,0,0,0,0,0,0,0,0,0,
0,0,0,0,0,0,0,0,0,0,0,0,0,0,0,0,0,0,0,0,
0,0,0,0,0,0,0,0,0,0,0,0,0,0,0,0,0,0,0,0,
0,0,0,0,0,0,0,0,0,0,0,0,0,0,0,0,0,0,0,0,
0,0,0,0,0,0,0,0,0,0,0,0,0,0,0,0,0,0,0,0
</data>
 </layer>
 <layer id="16" name="Wall" width="20" height="12">
  <data encoding="csv">
0,0,0,0,0,0,0,0,0,0,0,0,0,0,0,0,0,0,0,0,
0,83,83,83,83,83,83,83,83,83,83,83,83,83,83,83,83,83,83,0,
0,1610612819,0,0,0,0,0,0,0,0,0,0,0,0,0,0,0,0,2684354643,0,
0,1610612819,0,0,0,0,0,0,0,0,0,0,0,0,0,0,0,0,2684354643,0,
0,1610612819,0,0,0,0,0,0,0,0,0,0,0,0,0,0,0,0,2684354643,0,
0,2684354644,0,0,0,0,0,0,0,0,0,0,0,0,0,0,0,0,2684354643,0,
0,1610612820,0,0,0,0,0,0,0,0,0,0,0,0,0,0,0,0,2684354643,0,
0,83,83,83,0,0,0,0,0,0,0,0,0,0,0,0,83,83,83,0,
0,1610612819,0,0,0,0,0,0,0,0,0,0,0,0,0,0,0,0,2684354643,0,
0,1610612819,0,0,0,0,0,0,0,0,0,0,0,0,0,0,0,0,2684354643,0,
0,1610612819,0,0,0,0,0,0,0,0,0,0,0,0,0,0,0,0,2684354643,0,
0,1610612819,0,0,0,0,0,0,0,0,0,0,0,0,0,0,0,0,2684354643,0
</data>
 </layer>
 <layer id="17" name="Wall Border" width="20" height="12">
  <data encoding="csv">
1610612823,1610612820,1610612820,1610612820,1610612820,1610612820,1610612820,1610612820,1610612820,1610612820,1610612820,1610612820,1610612820,1610612820,1610612820,1610612820,1610612820,1610612820,1610612820,87,
3221225556,0,0,0,0,0,0,0,0,0,0,0,0,0,0,0,0,0,0,84,
3221225556,0,0,0,0,0,0,0,0,0,0,0,0,0,0,0,0,0,0,84,
3221225556,0,0,0,0,0,0,0,0,0,0,0,0,0,0,0,0,0,0,84,
3221225556,0,0,0,0,0,0,0,0,0,0,0,0,0,0,0,0,0,0,84,
3221225559,0,2684354644,2684354644,0,0,0,0,0,0,0,0,0,0,0,0,2684354644,2684354644,2684354644,2684354647,
1610612823,0,1610612820,1610612820,0,0,0,0,0,0,0,0,0,0,0,0,1610612820,1610612820,1610612820,87,
3221225556,0,0,0,0,0,0,0,0,0,0,0,0,0,0,0,0,0,0,84,
3221225556,0,0,0,0,0,0,0,0,0,0,0,0,0,0,0,0,0,0,84,
3221225556,0,0,0,0,0,0,0,0,0,0,0,0,0,0,0,0,0,0,84,
3221225556,0,0,0,0,0,0,0,0,0,0,0,0,0,0,0,0,0,0,84,
3221225556,0,0,0,0,0,0,0,0,0,0,0,0,0,0,0,0,0,0,84
</data>
 </layer>
 <layer id="18" name="Wall Shadow" width="20" height="12">
  <data encoding="csv">
0,0,0,0,0,0,0,0,0,0,0,0,0,0,0,0,0,0,0,0,
0,0,3221225502,3221225502,3221225502,3221225502,3221225502,3221225502,3221225502,3221225502,3221225502,3221225502,3221225502,3221225502,3221225502,3221225502,3221225502,3221225502,0,0,
0,2684354590,1610612765,30,30,30,30,30,30,30,30,30,30,30,30,30,30,29,1610612766,0,
0,2684354590,1610612766,0,0,0,0,0,0,0,0,0,0,0,0,0,0,2684354590,1610612766,0,
0,2684354590,1610612766,0,0,0,0,0,0,0,0,0,0,0,0,0,0,2684354590,1610612766,0,
0,0,0,3221225558,1610612766,0,0,0,0,0,0,0,0,0,0,2684354590,2684354646,0,0,0,
0,0,0,1610612822,1610612766,0,0,0,0,0,0,0,0,0,0,2684354590,86,0,0,0,
0,2684354589,3221225502,3221225502,1610612766,0,0,0,0,0,0,0,0,0,0,2684354590,3221225502,3221225502,3221225501,0,
0,2684354590,1610612765,30,0,0,0,0,0,0,0,0,0,0,0,0,30,29,1610612766,0,
0,2684354590,1610612766,0,0,0,0,0,0,0,0,0,0,0,0,0,0,2684354590,1610612766,0,
0,2684354590,1610612766,0,0,0,0,0,0,0,0,0,0,0,0,0,0,2684354590,1610612766,0,
0,2684354590,3221225501,3221225502,3221225502,3221225502,3221225502,3221225502,3221225502,3221225502,3221225502,3221225502,3221225502,3221225502,3221225502,3221225502,3221225502,2684354589,1610612766,0
</data>
 </layer>
 <layer id="10" name="Grass" width="20" height="12" visible="0">
  <data encoding="csv">
0,0,0,0,0,0,0,0,0,0,0,0,0,0,0,0,0,0,0,0,
0,0,0,0,0,0,0,0,0,0,0,0,0,0,0,0,0,0,0,0,
0,0,0,0,0,0,0,0,0,0,0,0,0,0,0,0,0,0,0,0,
0,0,0,0,0,0,0,0,19,19,19,19,19,0,0,0,0,0,0,0,
0,0,0,0,0,0,0,0,19,19,19,19,19,0,0,0,0,0,0,0,
0,0,0,0,0,0,0,0,19,19,19,19,19,0,0,0,0,0,0,0,
0,0,0,0,0,0,0,0,19,19,19,19,19,0,0,0,0,0,0,0,
0,0,0,0,0,0,0,0,0,0,0,0,0,0,0,0,0,0,0,0,
0,0,0,0,0,0,0,0,0,0,0,0,0,0,0,0,0,0,0,0,
0,0,0,0,0,0,0,0,0,0,0,0,0,0,0,0,0,0,0,0,
0,0,0,0,0,0,0,0,0,0,0,0,0,0,0,0,0,0,0,0,
0,0,0,0,0,0,0,0,0,0,0,0,0,0,0,0,0,0,0,0
</data>
 </layer>
 <layer id="13" name="Stone" width="20" height="12" visible="0">
  <data encoding="csv">
0,0,0,0,0,0,0,0,0,0,0,0,0,0,0,0,0,0,0,0,
0,0,0,0,0,0,0,0,0,0,0,0,0,0,0,0,0,0,0,0,
0,0,0,0,0,0,0,43,43,0,0,0,0,0,0,0,0,0,0,0,
0,0,0,0,0,0,0,43,0,0,37,41,0,0,0,0,0,0,0,0,
0,0,0,0,0,0,0,0,41,41,0,0,43,0,0,0,0,0,0,0,
0,0,0,0,0,0,0,0,41,0,0,41,42,0,0,0,0,0,0,0,
0,0,0,0,0,0,0,0,41,0,0,41,0,43,0,0,0,0,0,0,
0,0,0,0,0,0,0,0,41,41,41,41,43,43,0,0,0,0,0,0,
0,0,0,0,0,0,0,0,0,0,0,0,0,0,0,0,0,0,0,0,
0,0,0,0,0,0,0,0,0,0,0,0,0,0,0,0,0,0,0,0,
0,0,0,0,0,0,0,0,0,0,0,0,0,0,0,0,0,0,0,0,
0,0,0,0,0,0,0,0,0,0,0,0,0,0,0,0,0,0,0,0
</data>
 </layer>
 <layer id="8" name="Pointer" width="20" height="12" visible="0">
  <data encoding="csv">
0,0,0,0,0,0,0,0,0,0,0,0,0,0,0,0,0,0,0,0,
0,0,0,0,0,0,0,0,0,0,0,0,0,0,0,0,0,0,0,0,
0,0,0,0,0,0,0,0,0,0,0,0,0,0,0,0,0,0,0,0,
0,0,0,0,0,0,0,0,0,0,0,0,47,0,0,0,0,0,0,0,
0,0,0,0,0,0,0,0,0,0,0,0,0,0,0,0,0,0,0,0,
0,0,0,0,0,0,0,0,0,0,0,0,0,0,0,0,0,0,0,0,
0,0,0,0,0,0,0,0,0,0,0,0,0,0,0,0,0,0,0,0,
0,0,0,0,0,0,0,0,0,0,0,0,0,0,0,0,0,0,0,0,
0,0,0,0,0,0,0,0,0,0,0,0,0,0,0,0,0,0,0,0,
0,0,0,0,0,0,0,0,0,0,0,0,0,0,0,0,0,0,0,0,
0,0,0,0,0,0,0,0,0,0,0,0,0,0,0,0,0,0,0,0,
0,0,0,0,0,0,0,0,0,0,0,0,0,0,0,0,0,0,0,0
</data>
 </layer>
 <layer id="4" name="Camp" width="20" height="12" visible="0">
  <data encoding="csv">
0,0,0,0,0,0,0,0,0,0,0,0,0,0,0,0,0,0,0,0,
0,0,0,0,0,0,0,0,0,0,0,0,0,0,0,0,0,0,0,0,
0,0,0,0,0,0,0,0,0,0,0,0,0,0,0,0,0,0,0,0,
0,0,0,0,0,0,0,0,0,0,0,0,0,0,0,0,0,0,0,0,
0,0,0,0,0,0,0,0,0,0,58,53,0,0,0,0,0,0,0,0,
0,0,0,0,0,0,0,0,0,0,0,0,0,0,0,0,0,0,0,0,
0,0,0,0,0,0,0,0,0,0,0,0,0,0,0,0,0,0,0,0,
0,0,0,0,0,0,0,0,0,0,0,0,0,0,0,0,0,0,0,0,
0,0,0,0,0,0,0,0,0,0,0,0,0,0,0,0,0,0,0,0,
0,0,0,0,0,0,0,0,0,0,0,0,0,0,0,0,0,0,0,0,
0,0,0,0,0,0,0,0,0,0,0,0,0,0,0,0,0,0,0,0,
0,0,0,0,0,0,0,0,0,0,0,0,0,0,0,0,0,0,0,0
</data>
 </layer>
 <layer id="15" name="Decor" width="20" height="12" visible="0">
  <data encoding="csv">
79,79,79,79,79,79,79,79,79,79,79,79,79,79,79,79,79,79,79,79,
79,0,0,0,0,0,0,0,0,0,0,0,0,0,0,79,79,79,79,79,
79,0,0,0,0,79,79,79,79,79,79,79,79,79,0,79,79,79,0,79,
79,0,0,0,0,0,0,0,0,79,0,0,0,79,0,79,79,0,0,79,
79,0,0,0,0,0,0,0,0,0,0,0,0,79,0,79,0,0,0,79,
79,0,0,0,0,0,0,0,0,0,0,0,0,0,0,0,0,0,0,79,
79,0,0,0,0,0,0,0,0,0,0,0,79,0,79,0,0,0,0,79,
79,79,0,0,0,0,0,0,0,0,0,0,0,0,79,0,0,0,0,79,
79,79,79,79,0,0,0,0,0,0,0,0,79,79,79,0,0,0,0,79,
79,79,79,79,0,0,0,0,0,0,0,0,0,0,0,79,0,0,0,79,
79,79,79,79,79,0,0,0,0,0,0,0,0,0,0,79,79,0,0,79,
79,79,79,79,79,79,79,79,79,79,79,79,79,79,79,79,79,79,79,79
</data>
 </layer>
</map>
